X:57
T:Birds Sleep Safer on Bellerock Street Tonight
R:hornpipe
C: 1988, 2010 L.E. McCullough  
M:4/4 
L:1/8
K:G
GA|:BEGB AdAG|BEGB A2 GA|BEGB edBd|AdFD E2 GA|
BEGB AdAG|BEGB A2 GA|BEGB efga|1 gefd e2GA:|2 gefd e2 ef|] 
|:edBA B2 df|edBA B2GA|BEGB edBd|AdFG A2 gf|
edBA B2gf|edBA B2GA|BEGB efga|gefd e2ef:|
|:~g3e f~B3|eBgB edBA|(3B^cd AF ~A3B|ADFA FAdf|
~g3e f~B3|eBgB edBA|GBeg FAdf|1 EGBd ~e3f:|2 (3gfe fd e2 dc|]

